!!!!SEGMENT: pl-cz--iii-746_zebrowski-marcin-jozef--salve-regina.krn
!!!cenid: 17xx:2360
!!!COM: Żebrowski, Marcin Józef
!!!COM-rismid: pe30020322
!!!CDT: 1702-1770/06/29
!!!CNT: Polish
!!!OTL: Salve Regina
!!!PDT:
!!!AGN:
!!!SMS-siglum: PL-CZ
!!!SMS-shelfmark: III-746
!!!SMS-shelfwork: W
!!!SMS-variant:
!!!SMS-altvar:
!!!NIFC-rismid: 300033503
!!!URL-scan: https://repozytorium.nifc.pl/islandora/object/pl-cz%3A25303/datastream/PDF/view
!!!ONB-nifc:
!!!key: d
**kern	**dynam	**fb	**kern	**dynam	**kern	**dynam	**kern	**text
*part4	*part4	*	*part3	*part3	*part2	*part2	*part1	*part1
*staff4	*	*	*staff3	*	*staff2	*	*staff1	*staff1
*group	*group	*	*group1	*group1	*group1	*group1	*group	*group
*I"Organo o Baſso.	*	*	*I"Violino Secondo.	*	*I"Violino primo.	*	*I"Baſso Solo.	*
*I'org	*	*	*I'vl 2	*	*I'vl 1	*	*I'B	*
*Iorgan	*	*	*Ivioln	*	*Ivioln	*	*Ibass	*
*ICklav	*	*	*ICstr	*	*ICstr	*	*ICvox	*
*clefF4	*	*	*clefG2	*	*clefG2	*	*clefF4	*
*k[b-]	*	*	*k[b-]	*	*k[b-]	*	*k[b-]	*
*d:	*	*	*d:	*	*d:	*	*d:	*
*M2/4	*	*	*M2/4	*	*M2/4	*	*M2/4	*
=1	=1	=1	=1	=1	=1	=1	=1	=1
*	*	*above	*	*	*	*	*	*
!LO:TX:a:i:t=Salve. \nAllegro.	!	!	!	!	!	!	!LO:TX:a:t=16.	!
!	!	!	!LO:TX:a:i:t=Allegro.	!	!LO:TX:a:i:t=Allegro.	!	!LO:TX:a:i:t=Allegro.	!
8r	.	.	8r	.	4dd\	.	0r	.
8d\L	.	.	8f/L	.	.	.	.	.
8c#X\	.	X 6 5	8e/	.	8.a/L	.	.	.
8A\J	.	.	8c#X/J	.	.	.	.	.
.	.	.	.	.	16g/Jk	.	.	.
=2	=2	=2	=2	=2	=2	=2	=2	=2
8d\L	.	X 3 9	4A/	.	8.fT/L	.	.	.
8D\J	.	X X 8	.	.	.	.	.	.
.	.	.	.	.	16e/K	.	.	.
4r	.	.	4r	.	8d/	.	.	.
.	.	.	.	.	8a/J	.	.	.
=3	=3	=3	=3	=3	=3	=3	=3	=3
8r	.	.	4dd\	.	8.dd\L	.	.	.
8D/L	.	.	.	.	.	.	.	.
.	.	.	.	.	16ee\Jk	.	.	.
.	.	.	.	.	8qqff/	.	.	.
8C#X/	.	X 6 5	8.a/L	.	8.eet\L	.	.	.
8AA/J	.	.	.	.	.	.	.	.
.	.	.	16g/Jk	.	(32dd\LL	.	.	.
.	.	.	.	.	32ee\JJJ)	.	.	.
=4	=4	=4	=4	=4	=4	=4	=4	=4
.	.	.	.	.	(<16qqee/LL	.	.	.
.	.	.	.	.	16qqgg/JJ)	.	.	.
!LO:TX:t=P:problem:mixed beam	!	!	!	!	!	!	!	!
8D\L	.	X 3 9	8.fT/L	.	4ff\	.	.	.
8DD/J	.	X X 8	.	.	.	.	.	.
.	.	.	16e/K	.	.	.	.	.
4r	.	.	8d/	.	8r	.	.	.
.	.	.	8a/J	.	8ee\	.	.	.
=5	=5	=5	=5	=5	=5	=5	=5	=5
4d\	.	.	8.dd\L	.	8.ff\L	.	0r	.
.	.	.	16ee\Jk	.	16gg\Jk	.	.	.
.	.	.	8qqff/	.	8qqaa/	.	.	.
8.A\L	.	X 7 3#	(8.eet\L	.	8.ggT\L	.	.	.
16G\Jk	.	.	32dd\LL	.	(32ff\LL	.	.	.
.	.	.	32ee\JJJ)	.	32gg\JJJ)	.	.	.
=6	=6	=6	=6	=6	=6	=6	=6	=6
8F\L	.	X X 6	(16ff\LL	.	(16aa\LL	.	.	.
.	.	.	16a\	.	16ff\)	.	.	.
8A\|	.	.	16g\	.	(16ee\	.	.	.
.	.	.	16f\JJ)	.	16dd\JJ)	.	.	.
8F\|	.	.	(16e/LL	.	(16cc#X\LL	.	.	.
.	.	.	16f/)	.	16dd\)	.	.	.
8D\J|	.	.	(16e/	.	(16cc#\	.	.	.
.	.	.	16f/JJ)	.	16dd\JJ)	.	.	.
=7	=7	=7	=7	=7	=7	=7	=7	=7
8C#X\L	.	X 6 5	4e/	.	4g/	.	.	.
8A\J	.	.	.	.	.	.	.	.
16D\LL	.	.	4d/	.	4f/	.	.	.
16E\	.	.	.	.	.	.	.	.
16F\	.	.	.	.	.	.	.	.
16G\JJ	.	.	.	.	.	.	.	.
!LO:LB:g=original	!	!	!	!	!LO:LB:g=original	!	!	!
=8	=8	=8	=8	=8	=8	=8	=8	=8
.	.	.	8qqe/	.	8qqg/	.	.	.
!LO:TX:t=P:problem:mixed beam	!	!	!	!	!	!	!	!
8AA/L	.	X 6 4	8d/L	.	8fT/L	.	.	.
8A\	.	X 5 3#	8c#X/J	.	8e/J	.	.	.
8AA/	.	.	16r	.	8r	.	.	.
.	.	.	16aa\LL	.	.	.	.	.
8C#X/J	.	X X 6	16a\	.	8ee\	.	.	.
.	.	.	16aa\JJ	.	.	.	.	.
!	!	!	!LO:LB:g=original	!	!	!	!	!
=9	=9	=9	=9	=9	=9	=9	=9	=9
8D\L	.	.	8a/	.	(16ff\LL	.	0r	.
.	.	.	.	.	16aa\)	.	.	.
8E\	.	X X 6/	4aa\	.	(16cc#X\	.	.	.
.	.	.	.	.	16ee\JJ)	.	.	.
8F\	.	X X 6	.	.	(16dd\LL	.	.	.
.	.	.	.	.	16ff\)	.	.	.
8C#X\J	.	X 6 5	[>8a/	.	(16ee\	.	.	.
.	.	.	.	.	16gg\JJ)	.	.	.
=10	=10	=10	=10	=10	=10	=10	=10	=10
!	!	!	!	!	!LO:TX:t=P:problem:mixed beam	!	!	!
8D\L	.	.	8a/]	.	(16ff\LL	.	.	.
.	.	.	.	.	16aa\)	.	.	.
8G\	.	X 4 2	4aa\	.	(16c#X/	.	.	.
.	.	.	.	.	16e/JJ)	.	.	.
8F\	.	X X 6	.	.	(16d/LL	.	.	.
.	.	.	.	.	16f/)	.	.	.
8C#X\J	.	X 6 5	[<8a/	.	(16e/	.	.	.
.	.	.	.	.	16g/JJ)	.	.	.
=11	=11	=11	=11	=11	=11	=11	=11	=11
!	!	!	!	!	!LO:TUP:b:problem:klamra łukowa	!	!	!
8D\L	.	.	8a/]	.	24f/LL	.	.	.
.	.	.	.	.	24e/	.	.	.
.	.	.	.	.	24d/JJ	.	.	.
8F\	.	X X 6	4dd\	.	16dd\LL|	.	.	.
.	.	.	.	.	16a\JJ|	.	.	.
.	.	.	.	.	(<16qqdd/LL	.	.	.
.	.	.	.	.	16qqee/JJ)	.	.	.
8G\	.	X 6 5	.	.	4eet\	.	.	.
8A\J	.	X X 3#	8cc#Xt\	.	.	.	.	.
=12	=12	=12	=12	=12	=12	=12	=12	=12
.	.	.	8qqcc#X/	.	.	.	.	.
16r	.	X X 6	4dd\	.	4dd\	.	.	.
16B-\LL	.	.	.	.	.	.	.	.
16A\	.	.	.	.	.	.	.	.
16G\JJ	.	.	.	.	.	.	.	.
8F\L	.	X X 6	16r	.	8r	.	.	.
.	.	.	16aa\LL	.	.	.	.	.
!	!LO:DY:b:t=pia&colon;	!	!	!LO:DY:b:t=pia&colon;	!	!LO:DY:b:t=pia&colon;	!	!
8C#X\J	p	X X 6	16a\	p	8ee\	p	.	.
.	.	.	16aa\JJ	.	.	.	.	.
=13	=13	=13	=13	=13	=13	=13	=13	=13
8D\L	.	.	8a/	.	(16ff\LL	.	0r	.
.	.	.	.	.	16aa\)	.	.	.
8E\	.	X X 6/	4A/	.	(16cc#X\	.	.	.
.	.	.	.	.	16ee\JJ)	.	.	.
8F\	.	X X 6	.	.	(16dd\LL	.	.	.
.	.	.	.	.	16ff\)	.	.	.
8C#X\J	.	X 6 5	[8a/	.	(16ee\	.	.	.
.	.	.	.	.	16gg\JJ)	.	.	.
=14	=14	=14	=14	=14	=14	=14	=14	=14
!	!	!	!	!	!LO:TX:t=P:problem:mixed beam	!	!	!
8D\L	.	.	8a/]	.	(16ff\LL	.	.	.
.	.	.	.	.	16aa\)	.	.	.
8G\	.	X 4 2	4A/	.	(16c#X/	.	.	.
.	.	.	.	.	16e/JJ)	.	.	.
!	!	!	!	!	!LO:LB:g=original	!	!	!
8F\	.	X X 6	.	.	(16d/LL	.	.	.
.	.	.	.	.	16f/)	.	.	.
8C#X\J	.	X 6 5	[8a/	.	(16e/	.	.	.
.	.	.	.	.	16g/JJ)	.	.	.
=15	=15	=15	=15	=15	=15	=15	=15	=15
!LO:TX:t=P:problem:mixed beam	!	!	!	!	!	!	!	!
!	!LO:DY:b:t=for&colon;	!	!	!LO:DY:b:t=for	!LO:TUP:b:problem:klamra łukowa	!LO:DY:b:t=for:rj	!	!
8D\L	f	.	8a/]	f	24f/LL	f	.	.
.	.	.	.	.	24e/	.	.	.
.	.	.	.	.	24d/JJ	.	.	.
!	!	!	!	!	!LO:TUP:b:problem:klamra łukowa	!	!	!
8G\	.	.	4d/	.	24b-/LL	.	.	.
.	.	.	.	.	24a/	.	.	.
.	.	.	.	.	24g/JJ	.	.	.
!	!	!	!	!	!LO:TX:t=P:problem:mixed beam	!	!	!
8A\	.	X X 4	.	.	8a\L|	.	.	.
*	*	*reverse	*	*	*	*	*	*
8AA/J	.	X X 3#	8c#Xt/	.	8A/J|	.	.	.
!LO:LB:g=original	!	!	!	!	!	!	!	!
=16	=16	=16	=16	=16	=16	=16	=16	=16
.	.	.	8qqc#X/	.	.	.	.	.
16D\LL	.	.	4d/	.	4d/	.	.	.
16d\|	.	.	.	.	.	.	.	.
16c\|	.	.	.	.	.	.	.	.
16B-\JJ|	.	.	.	.	.	.	.	.
16A\LL|	.	.	4r	.	4r	.	.	.
16G\|	.	.	.	.	.	.	.	.
16F\|	.	.	.	.	.	.	.	.
16E\JJ|	.	.	.	.	.	.	.	.
=17	=17	=17	=17	=17	=17	=17	=17	=17
!	!LO:DY:b:t=pia&colon;	!	!	!LO:DY:b:t=pia&colon;	!	!LO:DY:b:t=pia&colon;	!	!
8D/L	p	.	8f/L	p	8a/L	p	4d\	Sal-
8D/	.	.	8f/	.	8a/	.	.	.
8C#X/	.	X 6 5	8e/	.	8a/	.	8.A\	-ve
8C#/J	.	.	8e/J	.	8a/J	.	.	.
.	.	.	.	.	.	.	16G\	Re-
=18	=18	=18	=18	=18	=18	=18	=18	=18
.	.	.	.	.	.	.	8qqG/	.
4D/	.	.	4d/	.	4a/	.	(8.FT\L	-gi-
.	.	.	.	.	.	.	16E\Jk)	.
8r	.	.	16r	.	16r	.	4D/	-na
.	.	.	16ff\LL	.	16aa\LL	.	.	.
8D/	.	.	16ee\	.	16gg\	.	.	.
.	.	.	16dd\JJ	.	16ff\JJ	.	.	.
!	!	!	!LO:LB:g=original	!	!	!	!	!
=19	=19	=19	=19	=19	=19	=19	=19	=19
8AA/L	.	X 5 3#	(8cc#X\L	.	(8ee\L	.	8E\	ma-
8AA/	.	.	16dd\L	.	16ff\L	.	16F\	-ter
.	.	.	16ee\JJ)|	.	16gg\JJ)|	.	16G\	mi-
8AA/	.	X 6 4	8dd\L	.	8ff\L	.	8F\	-se-
8AA/J	.	X 5 3#	8cc#X\J	.	8ee\J	.	8E\	-ri-
=20	=20	=20	=20	=20	=20	=20	=20	=20
8D/L	.	.	(16dd\LL	.	(16ffT\LL	.	8.FT\	-cor-
.	.	.	16cc#X\	.	16ee\	.	.	.
8D/	.	.	16dd\)	.	16ff\)	.	.	.
.	.	.	16ee\JJ|	.	16gg\JJ|	.	16G\	-di-
8D/	.	.	16ff\LL|	.	16aa\LL|	.	4A\	-ae
.	.	.	(16ff\	.	(16ddd\	.	.	.
8D/J	.	.	16ee\	.	16ccc#X\	.	.	.
.	.	.	16ff\JJ)	.	16ddd\JJ)	.	.	.
!	!	!	!	!	!	!	!LO:LB:g=original	!
=21	=21	=21	=21	=21	=21	=21	=21	=21
8C#X/L	.	X X 7	(8gg\L	.	(8bb-\L	.	8B-\	ma-
8C#/	.	X X 6	16ff\L	.	16aa\L	.	16A\	-ter
.	.	.	16ee\JJ)|	.	16gg\JJ)|	.	16G\	mi-
8AA/	.	X 6 4	8dd\L	.	8ff\L	.	8F\	-se-
8AA/J	.	X 5 3#	8cc#X\J	.	8ee\J	.	8E\	-ri-
!	!	!	!	!	!LO:LB:g=original	!	!	!
=22	=22	=22	=22	=22	=22	=22	=22	=22
!	!	!	!LO:TX:t=P:problem:mixed beam	!	!LO:TX:t=P:problem:mixed beam	!	!	!
8D\L	.	.	8dd\L	.	16dd\LL	.	16F\	-cor-
.	.	.	.	.	16d/	.	16E\	-di-
!	!	!	!	!	!	!LO:DY:b:t=for&colon;	!	!
8d\J	.	.	8d/J	.	16f/	f	8D/	-ae
.	.	.	.	.	16a/JJ	.	.	.
!	!LO:DY:b:t=for&colon;	!	!	!LO:DY:b:t=for&colon;	!	!	!	!
16F\LL	f	X X 6	(16a/LL	f	16dd\LL	.	4r	.
16G\	.	.	16b-/	.	16ee\	.	.	.
16F\	.	.	16a/)	.	16ff\	.	.	.
16E\JJ	.	.	16g/JJ|	.	16gg\JJ	.	.	.
!LO:LB:g=original	!	!	!	!	!	!	!	!
=23	=23	=23	=23	=23	=23	=23	=23	=23
!	!	!	!	!LO:DY:b:t=pia&colon;	!	!	!	!
8D\L	.	.	8f/	p	(16aa\LL	.	4D/	Vi-
.	.	.	.	.	16ff\)	.	.	.
!	!LO:DY:b:t=pia&colon;	!	!	!	!	!LO:DY:b:t=pia&colon;	!	!
8E\	p	.	8r	.	(16ee\	p	.	.
.	.	.	.	.	16dd\JJ)	.	.	.
8F\	.	X X 6	4r	.	(16cc#X\LL	.	8A\	-ta
.	.	.	.	.	16dd\)	.	.	.
8D\J	.	.	.	.	(16cc#\	.	8d\	dul-
.	.	.	.	.	16dd\JJ)	.	.	.
=24	=24	=24	=24	=24	=24	=24	=24	=24
.	.	.	.	.	.	.	8qqc/	.
*	*	*	*2\right	*	*2\right	*	*	*
8G\L	.	.	(16dd\LL	.	2bb-\	.	8B-\L	-ce-
.	.	.	16b-\)	.	.	.	.	.
8A\	.	.	(16a\	.	.	.	16A\L	.
.	.	.	16g\JJ)	.	.	.	16B-\JJ	.
.	.	.	.	.	.	.	8qqA/	.
8B-\	.	X X 6	(16f#X/LL	.	.	.	4G\	-do
.	.	.	16g/)	.	.	.	.	.
8G\J	.	.	(16f#/	.	.	.	.	.
.	.	.	16g/JJ)	.	.	.	.	.
=25	=25	=25	=25	=25	=25	=25	=25	=25
8C\L	.	.	2ee\	.	(16gg\LL	.	8.C/	et
.	.	.	.	.	16ee\)	.	.	.
8D\	.	.	.	.	(16dd\	.	.	.
.	.	.	.	.	16cc\JJ)	.	16E\	spes
8E\	.	X X 6	.	.	(16bn\LL	.	8G\	nos-
.	.	.	.	.	16cc\)	.	.	.
8C\J	.	.	.	.	(16b\	.	8c\	-tra
.	.	.	.	.	16cc\JJ)	.	.	.
!	!	!	!	!	!	!	!LO:LB:g=original	!
=26	=26	=26	=26	=26	=26	=26	=26	=26
.	.	.	.	.	.	.	8qqA/	.
8F\L	.	.	(16cc/LL	.	2aa\	.	8A\L	sal-
.	.	.	16b-/)	.	.	.	.	.
8G\	.	.	(16g/	.	.	.	16G\L	.
.	.	.	16f/JJ)	.	.	.	16A\JJ	.
.	.	.	.	.	.	.	8qqF/	.
8A\	.	X X 6	(16e/LL	.	.	.	4F\	-ve
.	.	.	16f/)	.	.	.	.	.
8G\J	.	.	(16e/	.	.	.	.	.
.	.	.	16f/JJ)	.	.	.	.	.
!	!	!	!LO:LB:g=original	!	!	!	!	!
=27	=27	=27	=27	=27	=27	=27	=27	=27
8C\L|	.	X X 7	4r	.	16r	.	4.C/	ad
.	.	.	.	.	16bb-\LL	.	.	.
8E\|	.	.	.	.	16gg\	.	.	.
.	.	.	.	.	16ee\JJ	.	.	.
8G\|	.	.	16r	.	[4cc\	.	.	.
.	.	.	16b-/LL	.	.	.	.	.
8c\J|	.	.	16g/	.	.	.	8C/	te
.	.	.	16e/JJ	.	.	.	.	.
=28	=28	=28	=28	=28	=28	=28	=28	=28
8C\L|	.	X X 7	[4c/	.	16cc\LL]	.	4E\	sus-
.	.	.	.	.	16bb-\	.	.	.
8E\|	.	.	.	.	16gg\	.	.	.
.	.	.	.	.	16ee\JJ	.	.	.
8G\|	.	.	16c/LL]	.	[4cc\	.	4E\	-pi-
.	.	.	16b-/	.	.	.	.	.
8c\J|	.	.	16g/	.	.	.	.	.
.	.	.	16e/JJ	.	.	.	.	.
=29	=29	=29	=29	=29	=29	=29	=29	=29
*	*	*	*	*	*	*	*2\right	*
8C\L|	.	X X 7	4cc 4e 4G/|>	.	16cc\LL]	.	2GT\	-ra-
.	.	.	.	.	16bb-\	.	.	.
8E\|	.	.	.	.	16gg\	.	.	.
.	.	.	.	.	16ee\JJ	.	.	.
!	!	!	!	!	!LO:LB:g=original	!	!	!
8G\|	.	.	4cc 4e 4G/|>	.	16cc\LL	.	.	.
.	.	.	.	.	16bb-\	.	.	.
8c\J|	.	.	.	.	16gg\	.	.	.
.	.	.	.	.	16ee\JJ	.	.	.
=30	=30	=30	=30	=30	=30	=30	=30	=30
!	!	!	!	!LO:DY:b:t=for&colon;:rj	!	!LO:DY:b:t=fr	!	!
8r	.	.	4cc 4e 4G`/|>	f	4bb- 4cc 4e 4G/	f	4B-\	-mus
8C/	.	.	.	.	.	.	.	.
4CC/	.	.	4r	.	4r	.	4r	.
!LO:LB:g=original	!	!	!	!	!	!	!	!
=31	=31	=31	=31	=31	=31	=31	=31	=31
!	!	!	!	!LO:DY:b:t=pia&colon;	!	!LO:DY:b:t=pia&colon;	!	!
8F\L	.	X X 3-	8cc\	p	(16a-X/LL	p	(8A-X\L	ge-
.	.	.	.	.	16cc/)	.	.	.
8G\	.	X X 6n	4c/	.	(16en/	.	8En\J)	.
.	.	.	.	.	16g/JJ)	.	.	.
8A-X\	.	X X 6	.	.	(16f/LL	.	(8F\L	-men-
.	.	.	.	.	16a-X/)	.	.	.
8En\J	.	X 6 5	[8cc\	.	(16g/	.	8G\J)	.
.	.	.	.	.	16b-/JJ)	.	.	.
=32	=32	=32	=32	=32	=32	=32	=32	=32
8F\L	.	X X 3-	8cc\]	.	(16a-X/LL	.	(8A-X\L	.
.	.	.	.	.	16cc/)	.	.	.
8G\	.	X X 6n	4c/	.	(16en/	.	8En\J)	.
.	.	.	.	.	16g/JJ)	.	.	.
8A-X\	.	X X 6	.	.	(16f/LL	.	8F\	-tes
.	.	.	.	.	16a-X/)	.	.	.
8En\J	.	X 6 5	[8cc\	.	(16g/	.	8G\	et
.	.	.	.	.	16b-/JJ)	.	.	.
!	!	!	!	!	!	!	!LO:LB:g=original	!
=33	=33	=33	=33	=33	=33	=33	=33	=33
!LO:TX:t=P:problem:mixed beam	!	!	!LO:TX:t=P:problem:mixed beam	!	!	!	!	!
8F\L	.	X X 3-	8cc\L]	.	(32a-X/LLL	.	(4A-X\	flen-
.	.	.	.	.	32g/JJ	.	.	.
.	.	.	.	.	8.f/J)	.	.	.
8D-X\	.	X X 7	8f/	.	.	.	.	.
.	.	.	.	.	(<16qqff/LL	.	.	.
.	.	.	.	.	16qqgg/JJ)	.	.	.
8C\	.	X 8 3n	8c/	.	4ggT\	.	4Ent\)	.
8CC/J	.	X X 7	8b-/J	.	.	.	.	.
=34	=34	=34	=34	=34	=34	=34	=34	=34
.	.	.	.	.	.	.	8qqE/	.
!	!	!	!	!LO:DY:b:t=for	!	!	!	!
4FF/	.	X X 3n	8an\L	f	8r	.	4F\	-tes
!	!	!	!	!	!	!LO:DY:b:t=for&colon;	!	!
.	.	.	8ff\J	.	8aan\|	f	.	.
!	!	!	!LO:TUP:a:problem:klamra łukowa	!	!LO:TUP:a:problem:klamra łukowa	!	!	!
4r	.	.	24gg\LL	.	24bb-\LL	.	4r	.
.	.	.	24ff\	.	24aa\	.	.	.
.	.	.	24gg\JJ	.	24bb-\JJ	.	.	.
!	!	!	!LO:TUP:a:problem:klamra łukowa	!	!LO:TUP:a:problem:klamra łukowa	!	!	!
.	.	.	24aa\LL	.	24ccc\LL	.	.	.
.	.	.	24gg\	.	24bb-\	.	.	.
.	.	.	24aa\JJ	.	24ccc\JJ	.	.	.
=35	=35	=35	=35	=35	=35	=35	=35	=35
!	!	!	!	!LO:DY:b:t=pia&colon;	!	!LO:DY:b:t=pia&colon;	!	!
8r	.	.	(2bb-\	p	(2ddd\	p	4.d\	in
8En\L	.	X 7 5	.	.	.	.	.	.
8E\	.	.	.	.	.	.	.	.
8E\J	.	.	.	.	.	.	8d\	hac
!	!	!	!	!	!LO:LB:g=original	!	!	!
=36	=36	=36	=36	=36	=36	=36	=36	=36
!	!	!	!LO:TX:t=P:problem:mixed beam	!	!LO:TX:t=P:problem:mixed beam	!	!	!
8F\L	.	.	8aa\L)	.	8ccc\L)	.	8c\	la-
8C\	.	X X 7	(8b-/	.	(8een\	.	8En\	-chry-
8Dn\	.	X X 5	8a/)	.	8ff\)	.	8F\	-ma-
8BBn\J	.	X 7 5	8Bn/J|	.	8Bn/J	.	8BBn/	-rum
!	!	!	!LO:LB:g=original	!	!	!	!	!
=37	=37	=37	=37	=37	=37	=37	=37	=37
!LO:TX:t=P:problem:mixed beam	!	!	!	!	!	!	!	!
8C\L	.	X 6 4	(8c/L	.	(16c/LL	.	2CT/	val-
.	.	.	.	.	16f/	.	.	.
8C\	.	.	16f/L)	.	16a/	.	.	.
.	.	.	16a/JJ|	.	16cc/JJ)|	.	.	.
8CC/	.	X 7- 3	(16e/LL	.	(16c/LL	.	.	.
.	.	.	16c/	.	16e/	.	.	.
8CC/J	.	.	16e/	.	16g/	.	.	.
.	.	.	16g/JJ)|	.	16b-X/JJ)|	.	.	.
=38	=38	=38	=38	=38	=38	=38	=38	=38
*	*	*	*	*	*^	*	*	*
!LO:TX:t=P:problem:mixed beam	!	!	!	!	!	!	!	!	!
!	!	!	!	!LO:DY:b:t=for&colon;	!	!	!LO:DY:b:t=for.	!	!
8FF/L	.	.	8f/L	f	4ff/	4a\	f	4F\	-le.
!	!LO:DY:b:t=for	!	!	!	!	!	!	!	!
8F\	f	.	8a/	.	.	.	.	.	.
8E\	.	X 6 5	8g/	.	4ryy	8.ccT\L	.	4r	.
8C\J	.	.	8e/J	.	.	.	.	.	.
.	.	.	.	.	.	16b-\Jk	.	.	.
*	*	*	*	*	*v	*v	*	*	*
=39	=39	=39	=39	=39	=39	=39	=39	=39
!LO:TX:t=P:problem:mixed beam	!	!	!	!	!LO:TX:t=P:problem:mixed beam	!	!LO:TX:a:t=11.	!
.	.	.	.	.	8qqb-/	.	.	.
8F\L	.	X 3 9	4c/	.	8.a/L	.	0r	.
8FF/J	.	X X 8	.	.	.	.	.	.
.	.	.	.	.	16g/K	.	.	.
4r	.	.	4r	.	8f/	.	.	.
.	.	.	.	.	8cc\J	.	.	.
!LO:LB:g=original	!	!	!	!	!	!	!	!
=40	=40	=40	=40	=40	=40	=40	=40	=40
*	*	*	*^	*	*	*	*	*
8r	.	.	4ff/	4a\	.	(8.ff\L	.	.	.
8F\L	.	.	.	.	.	.	.	.	.
.	.	.	.	.	.	16gg\Jk)	.	.	.
.	.	.	.	.	.	8qqaa/	.	.	.
8E\	.	X 6 5	4ryy	8.ccT\L	.	8.ggT\L	.	.	.
8D\J	.	.	.	.	.	.	.	.	.
.	.	.	.	16b-\Jk	.	(32ff\LL	.	.	.
.	.	.	.	.	.	32gg\JJJ)	.	.	.
*	*	*	*v	*v	*	*	*	*	*
=41	=41	=41	=41	=41	=41	=41	=41	=41
!LO:TX:t=P:problem:mixed beam	!	!	!LO:TX:t=P:problem:mixed beam	!	!	!	!	!
.	.	.	8qqb-/	.	8qqgg#X/	.	.	.
8F\L	.	X 3 9	8.a/L	.	4aa\	.	.	.
8FF/J	.	X X 8	.	.	.	.	.	.
.	.	.	16g/K	.	.	.	.	.
4r	.	.	8f/	.	8r	.	.	.
.	.	.	8cc\J	.	8ggn\	.	.	.
=42	=42	=42	=42	=42	=42	=42	=42	=42
4F\	.	.	(8.ff\L	.	8.aa\L	.	.	.
.	.	.	16gg\Jk)	.	16bb-\Jk	.	.	.
.	.	.	8qqaa/	.	.	.	.	.
8.C/L	.	X X 7	8.ggT\L	.	8.bb-T\L	.	.	.
16BB-/Jk	.	.	(32ff\LL	.	(32aa\LL	.	.	.
.	.	.	32gg\JJJ)	.	32bb-\JJJ)	.	.	.
!	!	!	!	!	!LO:LB:g=original	!	!	!
=43	=43	=43	=43	=43	=43	=43	=43	=43
!LO:TX:t=P:problem:mixed beam	!	!	!	!	!	!	!	!
8AA/L	.	X X 6	16aa\LL|	.	(16ccc\LL	.	0r	.
.	.	.	(16cc\	.	16aa\)	.	.	.
8c\|	.	.	16b-\	.	(16gg\	.	.	.
.	.	.	16a\JJ)	.	16ff\JJ)	.	.	.
8A\|	.	.	(16g/LL	.	(16ee\LL	.	.	.
.	.	.	16a/)	.	16ff\)	.	.	.
8F\J|	.	.	(16g/	.	(16ee\	.	.	.
.	.	.	16a/JJ)	.	16ff\JJ)	.	.	.
=44	=44	=44	=44	=44	=44	=44	=44	=44
.	.	.	8qqa/	.	8qqcc/	.	.	.
8r	.	.	4g/	.	4b-/	.	.	.
8E\L	.	X 6 5	.	.	.	.	.	.
8F\	.	X X 3	4f/	.	4a/	.	.	.
8BBn\J	.	X 7 5	.	.	.	.	.	.
=45	=45	=45	=45	=45	=45	=45	=45	=45
.	.	.	8qqg/	.	8qqb-/	.	.	.
8C\L	.	X 6 4	8f/L	.	8a/L	.	.	.
8c\	.	X 5 3	8e/J	.	8g/J	.	.	.
8C\	.	.	16r	.	8r	.	.	.
.	.	.	16cc\LL	.	.	.	.	.
8E\J	.	X X 6	16bn\	.	8gg\	.	.	.
.	.	.	16cc\JJ	.	.	.	.	.
!	!	!	!LO:LB:g=original	!	!	!	!	!
=46	=46	=46	=46	=46	=46	=46	=46	=46
8F\L	.	X X 3	8cc\	.	(16aa\LL	.	.	.
.	.	.	.	.	16ccc\)	.	.	.
8G\	.	X X 6	4c/	.	(16ee\	.	.	.
.	.	.	.	.	16gg\JJ)	.	.	.
8A\	.	X X 6	.	.	(16ff\LL	.	.	.
.	.	.	.	.	16aa\)	.	.	.
8E\J	.	X 6 5	[8cc\	.	(16gg\	.	.	.
.	.	.	.	.	16bb-\JJ)	.	.	.
=47	=47	=47	=47	=47	=47	=47	=47	=47
!	!	!	!	!LO:DY:b:t=pia&colon;	!LO:TX:t=P:problem:mixed beam	!	!	!
8F\L	.	X X 3	8cc\]	p	(16aa\LL	.	1r	.
.	.	.	.	.	16ccc\)	.	.	.
!	!	!	!	!	!	!LO:DY:b:t=pia&colon;	!	!
8G\	.	X X 6	4c/	.	(16e/	p	.	.
.	.	.	.	.	16g/JJ)	.	.	.
8A\	.	X X 6	.	.	(16f/LL	.	.	.
.	.	.	.	.	16a/)	.	.	.
8E\J	.	7 6 5	[8cc\	.	(16g/	.	.	.
.	.	.	.	.	16b-/JJ)	.	.	.
=48	=48	=48	=48	=48	=48	=48	=48	=48
!LO:TX:t=P:problem:mixed beam	!	!	!	!	!	!	!	!
!	!	!	!	!LO:DY:b:t=for	!LO:TUP:b:problem:klamra łukowa	!LO:DY:b:t=for&colon;	!	!
8F\L	.	.	8cc\]	f	24a/LL	f	.	.
.	.	.	.	.	24g/	.	.	.
.	.	.	.	.	24f/JJ	.	.	.
!	!	!	!	!	!LO:TUP:a:problem:klamra łukowa	!	!	!
8B-\	.	.	4f/	.	24dd\LL	.	.	.
.	.	.	.	.	24cc\	.	.	.
.	.	.	.	.	24b-\JJ	.	.	.
!	!	!	!	!	!LO:TX:t=P:problem:mixed beam	!	!	!
8c\	.	X X 4	.	.	8cc\L|	.	.	.
8C/J	.	X X 3	8et/	.	8c/J|	.	.	.
!LO:LB:g=original	!	!	!	!	!LO:LB:g=original	!	!	!
=49	=49	=49	=49	=49	=49	=49	=49	=49
!	!	!	!LO:TX:t=P:problem:mixed beam	!	!LO:TX:t=P:problem:mixed beam	!	!	!
4F\	.	.	16f/LL	.	16f/LL	.	2r	.
.	.	.	16ff\	.	16aa\	.	.	.
.	.	.	16cc\	.	16ff\	.	.	.
.	.	.	16a\JJ	.	16cc\JJ	.	.	.
.	.	.	8qqg/	.	8qqb-/	.	.	.
16r	.	X 6 4	4f/	.	4a/	.	.	.
16C/LL	.	.	.	.	.	.	.	.
16AA/	.	.	.	.	.	.	.	.
16C/JJ	.	.	.	.	.	.	.	.
!	!	!	!	!	!	!	!LO:LB:g=original	!
=50	=50	=50	=50	=50	=50	=50	=50	=50
!LO:TX:t=P:problem:mixed beam	!	!	!	!	!	!	!	!
8FF/L	.	.	8r	.	16r	.	2F\	et
!	!	!	!	!	!	!LO:DY:b:t=pia&colon;	!	!
.	.	.	.	.	16ff\LL	p	.	.
!	!LO:DY:b:t=pia&colon;	!	!	!LO:DY:b:t=pia&colon;	!	!	!	!
8F\	p	.	8a/L	p	16ee\	.	.	.
.	.	.	.	.	16dd\JJ	.	.	.
8E\	.	X X 6	8g/	.	8cc\L	.	.	.
8D\J	.	X X 7	8f/J	.	8cc\J	.	.	.
=51	=51	=51	=51	=51	=51	=51	=51	=51
2C/	.	X 8 5	2e/	.	2ccT\	.	4.G\	Je-
.	.	X X 6	.	.	.	.	8A\	-sum
=52	=52	=52	=52	=52	=52	=52	=52	=52
4D/	.	X X 6	8r	.	4ff\	.	(8.B-\L	be-
.	.	.	8d/	.	.	.	.	.
.	.	.	.	.	.	.	32c\LL	.
.	.	.	.	.	.	.	32d\JJJ)	.
4E\	.	X 6 5	[4c/	.	8r	.	8c\	.
.	.	.	.	.	8gg\	.	8B-\	-ne-
=53	=53	=53	=53	=53	=53	=53	=53	=53
!LO:TX:t=P:problem:mixed beam	!	!	!	!	!	!	!	!
8FF/L	.	X X 9	8c/L]	.	8aa\L|	.	(16A\LL	-dic-
.	.	.	.	.	.	.	16G\JJ)	.
16F\L	.	X X 8	16a/L	.	(8cc\	.	8F\	-tum
16E-X\JJ	.	.	16g/JJ	.	.	.	.	.
8D/L	.	X X 6	8f/L	.	8b-\	.	4r	.
8C/J	.	X X 3-	8e-X/J	.	8a\J)	.	.	.
=54	=54	=54	=54	=54	=54	=54	=54	=54
!LO:TX:t=P:problem:mixed beam	!	!	!	!	!LO:TX:t=P:problem:mixed beam	!	!	!
8BB-/L	.	X X 6	8d/L|	.	16g/LL|	.	4.G\	fruc-
.	.	.	.	.	(16gg\	.	.	.
8G\	.	.	(8b-/	.	16ff\	.	.	.
.	.	.	.	.	16ee-X\JJ)	.	.	.
8F\	.	X X 6	8a/	.	8dd\L	.	.	.
8E-X\J	.	X X 7	8g/J)	.	8dd\J	.	8G\	-tum
=55	=55	=55	=55	=55	=55	=55	=55	=55
*2\right	*	*	*	*	*	*	*	*ij
2D\	.	X 8 5	2f#X/	.	2ddT\	.	4.A\	fruc-
.	.	X 6 3#	.	.	.	.	8B-\	-tum
*	*	*	*	*	*	*	*	*Xij
!	!	!	!LO:LB:g=original	!	!	!	!	!
=56	=56	=56	=56	=56	=56	=56	=56	=56
4En\	.	X X 6	8r	.	4gg\	.	(8.cT\L	ven-
.	.	.	8en/	.	.	.	.	.
.	.	.	.	.	.	.	32B-\LL	.
.	.	.	.	.	.	.	32c\JJJ)	.
4F#X\	.	X 6 5	[4d/	.	8r	.	8d\	.
.	.	.	.	.	8aa\	.	8c\	-tris
!	!	!	!	!	!	!	!LO:LB:g=original	!
=57	=57	=57	=57	=57	=57	=57	=57	=57
4G\	.	.	8d/L]	.	8bb-\L|	.	(16B-\LL	tu-
.	.	.	.	.	.	.	16A\JJ)	.
.	.	.	(8b-/	.	(8dd\	.	8G\	-i
4GG/	.	.	8a/	.	8cc\	.	4r	.
.	.	.	8g/J)	.	8b-\J)	.	.	.
!LO:LB:g=original	!	!	!	!	!LO:LB:g=original	!	!	!
=58	=58	=58	=58	=58	=58	=58	=58	=58
4C/	.	.	2g/	.	8r	.	8e-X\	no-
.	.	.	.	.	4ee-X\	.	4C/	.
4E-X\	.	X X 6	.	.	.	.	.	.
.	.	.	.	.	8dd\	.	8BB-/	.
=59	=59	=59	=59	=59	=59	=59	=59	=59
4F\	.	.	2a/	.	2cc\	.	16AA/LL	.
.	.	.	.	.	.	.	16C/	.
.	.	.	.	.	.	.	16F/	.
.	.	.	.	.	.	.	16A/JJ	.
*	*	*Xreverse	*	*	*	*	*	*
4AA/|	.	X 6 5-	.	.	.	.	16c\LL	.
.	.	.	.	.	.	.	16e-X\	.
.	.	.	.	.	.	.	16d\	.
.	.	.	.	.	.	.	16c\JJ	.
=60	=60	=60	=60	=60	=60	=60	=60	=60
4BB-/|	.	.	2f/	.	8r	.	8d\	.
.	.	.	.	.	4dd\	.	4BB-/	.
4D/|	.	X X 6	.	.	.	.	.	.
.	.	.	.	.	8cc\	.	8AA/	.
=61	=61	=61	=61	=61	=61	=61	=61	=61
4E-X\	.	.	2g/	.	2b-\	.	16GG/LL	.
.	.	.	.	.	.	.	16BB-/	.
.	.	.	.	.	.	.	16E-X/	.
.	.	.	.	.	.	.	16G/JJ	.
*	*	*reverse	*	*	*	*	*	*
4GG/|	.	X 6- 5	.	.	.	.	16B-\LL	.
.	.	.	.	.	.	.	16d\	.
.	.	.	.	.	.	.	16c\	.
.	.	.	.	.	.	.	16B-\JJ	.
=62	=62	=62	=62	=62	=62	=62	=62	=62
4AA/|	.	X X 5n	2e/	.	8r	.	8c\	.
.	.	.	.	.	4cc\	.	4AA/	.
4C/|	.	X X 6	.	.	.	.	.	.
.	.	.	.	.	8b-\	.	8GG/	.
!	!	!	!	!	!	!	!LO:LB:g=original	!
=63	=63	=63	=63	=63	=63	=63	=63	=63
4D/	.	X X 3#	4f#X/	.	2a/	.	16FF#X/LL	.
.	.	.	.	.	.	.	16AA/	.
.	.	.	.	.	.	.	16D/	.
.	.	.	.	.	.	.	16F#X/JJ	.
4FF#X/	.	X 6 5	[4d/	.	.	.	16A\LL	.
.	.	.	.	.	.	.	16c\	.
.	.	.	.	.	.	.	16B-\	.
.	.	.	.	.	.	.	16A\JJ	.
=64	=64	=64	=64	=64	=64	=64	=64	=64
8GG/L	.	.	8d/L]	.	(16b-\LL	.	8B-\	-bis
.	.	.	.	.	16cc\JJ	.	.	.
8AA/	.	X X 6/	8c/	.	4dd\)	.	8A\	post
8BB-/	.	X X 6	8B-/	.	.	.	8G\	hoc
8C/J	.	X 4 2	8A/J	.	[8dd\	.	8F#X\	e-
=65	=65	=65	=65	=65	=65	=65	=65	=65
8BB-/L	.	X X 6	(8B-/L	.	8dd\]	.	8G\	-xi-
8AA/	.	X X 6/	8c/	.	4dd\	.	8A\	-li-
8GG/	.	X X 3	8d/)	.	.	.	8B-\	-um
8FF#X/J	.	X 6 5	8a/J|	.	[8dd\	.	8c\	o-
=66	=66	=66	=66	=66	=66	=66	=66	=66
8GG/L	.	.	8g/L	.	8dd\]	.	(32B-\LLL	.
.	.	.	.	.	.	.	32A\JJ	.
.	.	.	.	.	.	.	8.G\J)	.
8BB-/	.	X X 6	8d/J	.	4gg\	.	.	.
.	.	.	8qqd/	.	.	.	.	.
8C/	.	X X 3-	4c/	.	.	.	4At\	-sten-
8D/J	.	X X 3#	.	.	8ff#X\	.	.	.
!LO:LB:g=original	!	!	!LO:LB:g=original	!	!LO:LB:g=original	!	!	!
=67	=67	=67	=67	=67	=67	=67	=67	=67
16r	.	X X 5	8B-/	.	8gg\L	.	4G\	-de
16E-X\LL	.	.	.	.	.	.	.	.
16D\	.	.	4d/	.	16bb-\L	.	.	.
16C\JJ	.	.	.	.	16aa\JJ	.	.	.
8BB-/L	.	X X 6	.	.	8gg\L	.	8r	.
8AA/J	.	X X 6/	[8d/	.	8ff#X\J	.	8c\	no-
!	!	!	!	!	!	!	!LO:LB:g=original	!
=68	=68	=68	=68	=68	=68	=68	=68	=68
!	!	!	!	!	!	!	!LO:TUP:a:problem:klamra łukowa	!
8GG/L	.	X X 5	8d/L]	.	8gg 8b- 8d 8G/	.	24B-\LL	-bis
.	.	.	.	.	.	.	24c\	.
.	.	.	.	.	.	.	24B-\JJ	.
!	!	!	!	!	!	!	!LO:TUP:a:problem:klamra łukowa	!
8AA/	.	X X 6/	8c/	.	4dd\	.	24A\LL	post
.	.	.	.	.	.	.	24B-\	.
.	.	.	.	.	.	.	24A\JJ	.
!	!	!	!	!	!	!	!LO:TUP:a:problem:klamra łukowa	!
8BB-/	.	X X 6	8B-/	.	.	.	24G\LL	hoc
.	.	.	.	.	.	.	24A\	.
.	.	.	.	.	.	.	24G\JJ	.
!	!	!	!	!	!	!	!LO:TUP:a:problem:klamra łukowa	!
8C/J	.	.	8A/J	.	[8dd\	.	24F#X\LL	e-
.	.	X 4 2	.	.	.	.	24G\	.
.	.	.	.	.	.	.	24F#\JJ	.
=69	=69	=69	=69	=69	=69	=69	=69	=69
8BB-/L	.	X X 6	(8B-/L	.	8dd\]	.	8G\	-xi-
8AA/	.	X X 6/	8c/	.	4dd\	.	8A\	-li-
8GG/	.	X X 3	8d/)	.	.	.	8B-\	-um
8FF#X/J	.	X 6 5	8a/J|	.	[8dd\	.	8c\	o-
=70	=70	=70	=70	=70	=70	=70	=70	=70
!	!	!	!	!	!	!	!LO:TX:t=P:problem:mixed beam	!
8GG/L	.	.	8b-/L	.	8dd\]	.	8B-\L	.
!	!	!	!	!	!	!	!LO:TUP:b:problem:klamra łukowa	!
8BB-/	.	X X 6	8d/	.	4gg\	.	24BB-T/L	.
.	.	.	.	.	.	.	24AA/	.
.	.	.	.	.	.	.	24BB-/JJ	.
!	!	!	!	!	!	!	!LO:TUP:b:problem:klamra łukowa	!
8C/	.	X X 3-	8e-X/	.	.	.	24CT/LL	.
.	.	.	.	.	.	.	24BB-/	.
.	.	.	.	.	.	.	24C/JJ	.
!	!	!	!	!	!	!	!LO:TUP:b:problem:klamra łukowa	!
8D/J	.	X X 3#	8d/J	.	8ff#Xt\	.	24DT/LL	sten-
.	.	.	.	.	.	.	24C/	.
.	.	.	.	.	.	.	24D/JJ	.
=71	=71	=71	=71	=71	=71	=71	=71	=71
.	.	.	.	.	8qqff/	.	.	.
!	!	!	!	!LO:DY:b:t=for&colon;	!	!	!	!
16r	.	.	16d/LL	f	4gg\	.	4GG/	-de.
!	!LO:DY:b:t=for&colon;	!	!	!	!	!	!	!
16GG/LL	f	.	16B-/	.	.	.	.	.
16AA/	.	.	16c/	.	.	.	.	.
16BB-/JJ	.	.	16d/JJ	.	.	.	.	.
16C/LL	.	.	16e/LL	.	4r	.	4r	.
16D/	.	.	16f#X/	.	.	.	.	.
16E/	.	.	16g/	.	.	.	.	.
16F#X/JJ	.	.	16a/JJ	.	.	.	.	.
=72	=72	=72	=72	=72	=72	=72	=72	=72
!	!	!	!	!	!	!LO:DY:b:t=for&colon;	!LO:TX:a:t=20.	!
2G\	.	.	[2d/	.	(8b-/L	f	0r	.
.	.	.	.	.	16cc/L	.	.	.
.	.	.	.	.	16b-/JJ)	.	.	.
.	.	.	.	.	8a/L	.	.	.
.	.	.	.	.	8g/J	.	.	.
!LO:LB:g=original	!	!	!	!	!	!	!	!
=73	=73	=73	=73	=73	=73	=73	=73	=73
8F#X\L	.	X X 6	8d/L]	.	2ddT\	.	.	.
16G\L	.	.	16b-/L	.	.	.	.	.
16F#\JJ	.	.	16a/JJ	.	.	.	.	.
8E\L	.	X X 7	8g/L	.	.	.	.	.
8D\J	.	X 8 #	8f#X/J	.	.	.	.	.
=74	=74	=74	=74	=74	=74	=74	=74	=74
4G\	.	.	8g/L	.	(8b-\L	.	.	.
.	.	.	8d/J	.	16cc\L)	.	.	.
.	.	.	.	.	16b-\JJ|	.	.	.
4E-X\	.	X 6/ 4	4c#X/	.	8a/L	.	.	.
.	.	X X 3	.	.	8g/J	.	.	.
!	!	!	!	!	!LO:LB:g=original	!	!	!
=75	=75	=75	=75	=75	=75	=75	=75	=75
*	*	*Xreverse	*	*	*	*	*	*
!	!	!	!	!	!LO:TX:t=P:problem:mixed beam	!	!	!
4D\	.	X X 3#	8r	.	8dd\L	.	.	.
.	.	.	8ff#X\	.	8d/J	.	.	.
8d\L	.	.	4ff# 4a 4d/	.	4r	.	.	.
8c\J	.	.	.	.	.	.	.	.
!	!	!	!LO:LB:g=original	!	!	!	!	!
=76	=76	=76	=76	=76	=76	=76	=76	=76
2B-\	.	X X 5n	[2fn/	.	(8dd\L	.	0r	.
.	.	.	.	.	16ee-X\L)	.	.	.
.	.	.	.	.	16dd\JJ|	.	.	.
.	.	.	.	.	8cc\L	.	.	.
.	.	.	.	.	8b-\J	.	.	.
=77	=77	=77	=77	=77	=77	=77	=77	=77
!	!	!	!LO:TX:t=P:problem:mixed beam	!	!	!	!	!
8A\L	.	X X 6	8f/L]	.	2ffT\	.	.	.
16B-\L	.	.	16dd\L	.	.	.	.	.
16A\JJ	.	.	16cc\JJ	.	.	.	.	.
8G\L	.	X X 7	8b-/L	.	.	.	.	.
8F\J	.	X X 8	8a/J	.	.	.	.	.
=78	=78	=78	=78	=78	=78	=78	=78	=78
4B-\	.	.	8b-/L	.	(8dd\L	.	.	.
.	.	.	8f/J	.	16ee-X\L)	.	.	.
.	.	.	.	.	16dd\JJ|	.	.	.
*	*	*reverse	*	*	*	*	*	*
4G\	.	X 6n 4	4ent/	.	8cc\L	.	.	.
.	.	X X 3	.	.	8b-\J	.	.	.
=79	=79	=79	=79	=79	=79	=79	=79	=79
!	!	!	!	!	!LO:TX:t=P:problem:mixed beam	!	!	!
8r	.	.	8r	.	8ff\L	.	.	.
!LO:TX:t=P:problem:mixed beam	!	!	!	!	!	!	!	!
8F\L	.	.	8a/	.	8f/J	.	.	.
8FF/	.	.	4a 4f 4c/	.	4r	.	.	.
8E-X\J	.	X 4 2	.	.	.	.	.	.
!LO:LB:g=original	!	!	!	!	!	!	!	!
=80	=80	=80	=80	=80	=80	=80	=80	=80
8D/L	.	X X 6	16B-/LL	.	(16ff\LL	.	0r	.
.	.	.	16B-/	.	16dd\JJ	.	.	.
8D/	.	.	16B-/	.	4b-/)	.	.	.
.	.	.	16B-/JJ	.	.	.	.	.
8D/	.	X X 5-	16B-/LL	.	.	.	.	.
.	.	.	16B-/	.	.	.	.	.
8D/J	.	.	16B-/	.	8a-X/|	.	.	.
.	.	.	16B-/JJ	.	.	.	.	.
=81	=81	=81	=81	=81	=81	=81	=81	=81
8E-X\L	.	.	16B-/LL	.	(8f#X/L	.	.	.
.	.	.	16B-/	.	.	.	.	.
8E-\	.	.	16B-/	.	8g/	.	.	.
.	.	.	16B-/JJ	.	.	.	.	.
8E-\	.	.	16g/LL	.	8b-/)	.	.	.
.	.	.	16g/	.	.	.	.	.
8E-\J	.	.	16g/	.	8bn/J|	.	.	.
.	.	.	16g/JJ	.	.	.	.	.
!	!	!	!	!	!LO:LB:g=original	!	!	!
=82	=82	=82	=82	=82	=82	=82	=82	=82
8En\L	.	X X 6	16g/LL	.	(16cc\LL	.	.	.
.	.	.	16g/	.	16gg\JJ)	.	.	.
8E\	.	.	16g/	.	4cc\	.	.	.
.	.	.	16g/JJ	.	.	.	.	.
8E\	.	X X 5	16g/LL	.	.	.	.	.
.	.	.	16g/	.	.	.	.	.
8E\J	.	.	16g/	.	8b-X/	.	.	.
.	.	.	16g/JJ	.	.	.	.	.
=83	=83	=83	=83	=83	=83	=83	=83	=83
8F\L	.	.	16c/LL	.	(8g#X/L	.	.	.
.	.	.	16c/	.	.	.	.	.
8F\	.	.	16c/	.	8a/	.	.	.
.	.	.	16c/JJ	.	.	.	.	.
8F\	.	.	16a/LL	.	8cc/)	.	.	.
.	.	.	16a/	.	.	.	.	.
8F\J	.	.	16a/	.	8cc#X/J|	.	.	.
.	.	.	16a/JJ	.	.	.	.	.
!	!	!	!LO:LB:g=original	!	!	!	!	!
=84	=84	=84	=84	=84	=84	=84	=84	=84
8F#X\L	.	X X 6	16a/LL	.	(16dd\LL	.	0r	.
.	.	.	16a/	.	16aa\JJ)	.	.	.
8F#\	.	.	16a/	.	4dd\	.	.	.
.	.	.	16a/JJ	.	.	.	.	.
8F#\	.	X X 5	16a/LL	.	.	.	.	.
.	.	.	16a/	.	.	.	.	.
8F#\J	.	.	16a/	.	8ccn\	.	.	.
.	.	.	16a/JJ	.	.	.	.	.
=85	=85	=85	=85	=85	=85	=85	=85	=85
8G\L	.	.	16d/LL	.	(8a\L	.	.	.
.	.	.	16d/	.	.	.	.	.
8G\	.	.	16d/	.	8b-\	.	.	.
.	.	.	16d/JJ	.	.	.	.	.
8G\	.	.	16b-/LL	.	8dd\)	.	.	.
.	.	.	16b-/	.	.	.	.	.
8G\J	.	.	16b-/	.	8dd\J|	.	.	.
.	.	.	16b-/JJ	.	.	.	.	.
!LO:LB:g=original	!	!	!	!	!	!	!	!
=86	=86	=86	=86	=86	=86	=86	=86	=86
*	*	*Xreverse	*	*	*	*	*	*
8GG/L	.	X X 6-	16B-/LL	.	(8ee-X\L	.	.	.
.	.	.	16B-/	.	.	.	.	.
8GG/	.	.	16B-/	.	8gg\	.	.	.
.	.	.	16B-/JJ	.	.	.	.	.
8GG/	.	X X 5	16B-/LL	.	8bb-\)	.	.	.
.	.	.	16B-/	.	.	.	.	.
8GG/J	.	.	16B-/	.	8dd\J|	.	.	.
.	.	.	16B-/JJ	.	.	.	.	.
=87	=87	=87	=87	=87	=87	=87	=87	=87
*	*	*reverse	*	*	*	*	*	*
4AA/	.	X X 3#	8A/	.	8cc#X\L|	.	.	.
.	.	.	8r	.	8een\|	.	.	.
8r	.	.	8r	.	8ff\|	.	.	.
!LO:TX:b:i:t=Tasto	!	!	!	!	!	!	!	!
8c#X`\|	.	.	8cc#X\|	.	8cc#X\J|	.	.	.
=88	=88	=88	=88	=88	=88	=88	=88	=88
8d\L|	.	.	8dd\L|	.	8dd\L|	.	0r	.
8A\|	.	.	8a\|	.	8a\|	.	.	.
8B-\|	.	.	8b-\|	.	8b-\|	.	.	.
8G#X\J|	.	.	8g#X\J|	.	8g#X\J|	.	.	.
!	!	!	!	!	!LO:LB:g=original	!	!	!
=89	=89	=89	=89	=89	=89	=89	=89	=89
8A\L|	.	.	8a/L|	.	8a/L|	.	.	.
8E\|	.	.	8e/|	.	8e/|	.	.	.
8F\|	.	.	8f/|	.	8f/|	.	.	.
8C#X\J|	.	.	8c#X/J|	.	8c#X/J|	.	.	.
=90	=90	=90	=90	=90	=90	=90	=90	=90
!	!	!	!LO:TX:t=P:problem:mixed beam	!	!LO:TX:t=P:problem:mixed beam	!	!	!
8D/L	.	.	16d/LL	.	16d/LL	.	.	.
.	.	.	16dd\	.	16gg#X\	.	.	.
8BB-/	.	X X 6/	16dd\	.	16gg#\	.	.	.
.	.	.	16dd\JJ	.	16gg#\JJ	.	.	.
8BB-/	.	.	16dd\LL	.	16gg#\LL	.	.	.
.	.	.	16ff\	.	16gg#\	.	.	.
8BB-/J	.	.	16ee\	.	16gg#\	.	.	.
.	.	.	16dd\JJ	.	16gg#\JJ	.	.	.
!	!	!	!LO:LB:g=original	!	!	!	!	!
=91	=91	=91	=91	=91	=91	=91	=91	=91
!LO:TX:t=P:problem:mixed beam	!	!	!	!	!LO:TX:t=P:problem:mixed beam	!	!	!
8AA/L	.	X X 3#	8cc#X\L|	.	8aa\L	.	.	.
8A\|	.	.	8a\J|	.	8A/J	.	.	.
!	!	!	!	!	!LO:TX:b:i:t=Volti.	!	!	!
8E\|	.	.	8e/L|	.	4r	.	.	.
8G\J|	.	.	8g/J|	.	.	.	.	.
!	!	!	!	!	!LO:PB:g=original	!	!LO:LB:g=original	!
=92	=92	=92	=92	=92	=92	=92	=92	=92
!	!LO:DY:b:t=pia&colon;	!	!	!LO:DY:b:t=pia&colon;	!	!LO:DY:b:t=pia&colon;	!	!
2C#X/	p	X 6 5	2c#X/	p	2c#X/	p	8r	.
.	.	.	.	.	.	.	8A\	O
.	.	.	.	.	.	.	(8E\L	cle-
.	.	.	.	.	.	.	8G\J)	.
!LO:LB:g=original	!	!	!	!	!	!	!	!
=93	=93	=93	=93	=93	=93	=93	=93	=93
8r	.	X 7 3#	8r	.	8r	.	2C#X/	-mens
8A\L|	.	.	8a/L|	.	8a/L|	.	.	.
8E\|	.	.	8e/|	.	8e/|	.	.	.
8G\J|	.	.	8g/J|	.	8g/J|	.	.	.
=94	=94	=94	=94	=94	=94	=94	=94	=94
2C#X/	.	X 6 5	2c#X/	.	2c#X/	.	8r	.
.	.	.	.	.	.	.	8A\	o
.	.	.	.	.	.	.	(8E\L	pi-
.	.	.	.	.	.	.	8G\J)	.
=95	=95	=95	=95	=95	=95	=95	=95	=95
8r	.	.	8r	.	8r	.	2C#X/	-a
*	*	*Xreverse	*	*	*	*	*	*
8A\L|	.	X 7 3#	8a/L|	.	8a/L|	.	.	.
8E\|	.	.	8e/|	.	8e/|	.	.	.
8G\J|	.	.	8g/J|	.	8g/J|	.	.	.
=96	=96	=96	=96	=96	=96	=96	=96	=96
2C#X/	.	X 7 5	2c#X/	.	2c#X/	.	8r	.
.	.	.	.	.	.	.	8B-\	o
.	.	X 6 5	.	.	.	.	(16A\LL	dul-
.	.	.	.	.	.	.	16G\JJ)	.
.	.	.	.	.	.	.	(16F\LL	-cis
.	.	.	.	.	.	.	16E\JJ)	.
=97	=97	=97	=97	=97	=97	=97	=97	=97
8D\L	.	.	8d/L	.	8d/L	.	(8D\L	Vir-
8E\	.	X X 6/	8e/	.	8e/	.	8c#X\J)	.
8F\	.	X X 6	8f/	.	8f/	.	8d\	-go
8G\J	.	.	8g/J	.	8g/J	.	8G\	Ma-
!	!	!	!	!	!	!	!LO:LB:g=original	!
=98	=98	=98	=98	=98	=98	=98	=98	=98
!LO:TX:t=P:problem:mixed beam	!	!	!	!	!	!	!	!
8A\L	.	X X 4	8a/L	.	8a/L	.	2At\	-ri-
8G\	.	.	8g/	.	8g/	.	.	.
*	*	*reverse	*	*	*	*	*	*
8A\	.	X X 3#	8a/	.	8a/	.	.	.
8AA/J	.	.	8A/J	.	8A/J	.	.	.
=99	=99	=99	=99	=99	=99	=99	=99	=99
!	!	!	!LO:TX:t=P:problem:mixed beam	!	!	!	!	!
!	!	!	!	!	!LO:TX:t=P:problem:mixed beam	!	!	!
8BB-/L	.	X X 5	16B-/LL	.	16B-/LL	.	4D/	-a.
.	.	.	16dd\	.	16ff\	.	.	.
!	!LO:DY:b:t=for&colon;	!	!	!LO:DY:b:t=for&colon;	!	!LO:DY:b:t=for&colon;	!	!
8D/J	f	.	16dd\	f	16ff\	f	.	.
.	.	.	16dd\JJ	.	16ff\JJ	.	.	.
!	!	!	!LO:LB:g=original	!	!	!	!	!
8F\L	.	.	16dd\LL	.	16ff\LL	.	4r	.
.	.	.	16dd\	.	16ff\	.	.	.
8B-\J	.	.	16dd\	.	16ff\	.	.	.
.	.	.	16dd\JJ	.	16ff\JJ	.	.	.
!LO:LB:g=original	!	!	!	!	!	!	!	!
=100	=100	=100	=100	=100	=100	=100	=100	=100
*	*	*Xreverse	*	*	*	*	*	*
!	!	!	!	!	!	!	!LO:TX:a:t=3.	!
8A\L	.	X 6/ 5-	16cc\LL	.	16ff#X\LL	.	1r	.
.	.	.	16a\	.	16ff#\	.	.	.
8e-X\	.	.	16a\	.	16ff#\	.	.	.
.	.	.	16a\JJ	.	16ff#\JJ	.	.	.
*	*	*reverse	*	*	*	*	*	*
8d\	.	X X 3#	16a/LL	.	16ff#\LL	.	.	.
.	.	.	16a/	.	16ff#\	.	.	.
8c\J	.	.	16a/	.	16ff#\	.	.	.
.	.	.	16a/JJ	.	16ff#\JJ	.	.	.
!	!	!	!	!	!LO:LB:g=original	!	!	!
=101	=101	=101	=101	=101	=101	=101	=101	=101
8B-\L	.	X X 6	16dd\LL	.	16gg\LL	.	.	.
.	.	.	16dd\	.	16gg\	.	.	.
8A\	.	.	16cc\	.	16gg\	.	.	.
.	.	.	16cc\JJ	.	16gg\JJ	.	.	.
8G\	.	.	16b-\LL	.	16gg\LL	.	.	.
.	.	.	16b-\	.	16gg\	.	.	.
8F\J	.	X 4n 2	16bn\	.	16gg\	.	.	.
.	.	.	16b\JJ	.	16gg\JJ	.	.	.
=102	=102	=102	=102	=102	=102	=102	=102	=102
8En/L|	.	X X 3#	16bn/LL	.	16gg#X\LL	.	2r	.
.	.	.	16b/	.	16gg#\	.	.	.
8D/|	.	6n 4/ 3	16f/	.	16gg#\	.	.	.
.	.	.	16f/JJ	.	16gg#\JJ	.	.	.
8C#X/|	.	X 5\ 3	16e/LL	.	16gg#\LL	.	.	.
.	.	.	16e/	.	16gg#\	.	.	.
8BBn/J|	.	X X 6/	16d/	.	16gg#\	.	.	.
.	.	.	16d/JJ	.	16gg#\JJ	.	.	.
=103	=103	=103	=103	=103	=103	=103	=103	=103
.	.	.	.	.	8qqgg/	.	.	.
4AA/	.	X X 3#	4c#X/	.	4aa\	.	8r	.
.	.	.	.	.	.	.	8A\|	O
!	!	!	!LO:TX:b:i:t=Volti.	!	!	!	!	!
4r	.	.	4r	.	4r	.	(8E\L	cle-
.	.	.	.	.	.	.	8G\J)	.
!	!	!	!LO:PB:g=original	!	!	!	!	!
=104	=104	=104	=104	=104	=104	=104	=104	=104
!	!	!	!	!	!	!LO:DY:b:t=pia&colon;	!	!
8r	.	.	8r	.	8r	p	2C#X/	-mens
!	!LO:DY:b:t=pia&colon;	!	!	!LO:DY:b:t=pia&colon;	!	!	!	!
8A\L|	p	X X 3#	8cc#X\L	p	16ee\LL	.	.	.
.	.	.	.	.	16a\JJ	.	.	.
8E\|	.	.	8cc#\	.	8gg\L	.	.	.
8G\J|	.	.	8ee\J	.	8gg\J	.	.	.
=105	=105	=105	=105	=105	=105	=105	=105	=105
2C#X/	.	X 6 5	4ee\	.	4gg\	.	8r	.
.	.	.	.	.	.	.	8A\|	o
.	.	.	4r	.	4r	.	(8E\L	pi-
.	.	.	.	.	.	.	8G\J)	.
!LO:LB:g=original	!	!	!	!	!	!	!	!
=106	=106	=106	=106	=106	=106	=106	=106	=106
8r	.	X 7 3#	8r	.	8r	.	2C#X/	-a
8A\L|	.	.	8cc#X\L	.	16ee\LL	.	.	.
.	.	.	.	.	16a\JJ	.	.	.
8E\|	.	.	8cc#\	.	8gg\L	.	.	.
8G\J|	.	.	8ee\J	.	8gg\J	.	.	.
!	!	!	!	!	!	!	!LO:LB:g=original	!
=107	=107	=107	=107	=107	=107	=107	=107	=107
2C#X/	.	X 7 5	2eet\	.	2ggT\	.	8r	.
.	.	.	.	.	.	.	8B-\	o
.	.	X 6 4	.	.	.	.	(16A\LL	dul-
.	.	.	.	.	.	.	16G\JJ)	.
.	.	.	.	.	.	.	(16F\LL	-cis
.	.	.	.	.	.	.	16E\JJ)	.
=108	=108	=108	=108	=108	=108	=108	=108	=108
8D\L	.	.	8a/L	.	8ff\L	.	(8D\L	Vir-
8E\	.	X X 6/	8g/	.	8ee\J	.	8c#X\J)	.
8F\	.	X X 6	8a/	.	[4dd\	.	8d\	-go
8G\J	.	.	8b-/J	.	.	.	8G\	Ma-
!	!	!	!	!	!LO:LB:g=original	!	!	!
=109	=109	=109	=109	=109	=109	=109	=109	=109
!LO:TX:t=P:problem:mixed beam	!	!	!	!	!	!	!	!
8A\L	.	X 6 4	8a/L	.	8dd\L]	.	(32F\LLL	.
.	.	.	.	.	.	.	32E\JJ	.
.	.	.	.	.	.	.	8.D\J)	.
8A\	.	.	8f/	.	8dd\	.	.	.
.	.	.	.	.	.	.	8qqF/	.
8AA/	.	X 5 4	8e/	.	8dd\	.	4Et\	-ri-
8AA/J	.	X 7 3#	8g/J	.	8cc#Xt\J	.	.	.
=110	=110	=110	=110	=110	=110	=110	=110	=110
4D/	.	.	16f/LL	.	16r	.	4D/	-a
.	.	.	16d/	.	16d/LL	.	.	.
.	.	.	16e/	.	16e/	.	.	.
!	!	!	!	!LO:DY:b:t=for	!	!LO:DY:b:t=for	!	!
.	.	.	16f/JJ	f	16f/JJ	f	.	.
4r	.	.	16g/LL	.	16g/LL	.	4r	.
.	.	.	16a/	.	16a/	.	.	.
.	.	.	16bn/	.	16bn/	.	.	.
.	.	.	16cc#X/JJ	.	16cc#X/JJ	.	.	.
=111	=111	=111	=111	=111	=111	=111	=111	=111
!	!	!	!LO:TX:t=P:problem:mixed beam	!	!	!	!	!
8r	.	.	8dd\L	.	4dd\	.	4d\	O
!	!	!	!	!LO:DY:b:t=pia&colon;	!	!	!	!
8d\L	.	.	8f/	p	.	.	.	.
!	!	!	!	!	!	!LO:DY:b:t=pia&colon;	!	!
8c#X\	.	X 6 5	8e/	.	8.a/L	p	8.A\L	.
8A\J	.	.	8c#X/J	.	.	.	.	.
.	.	.	.	.	16g/Jk	.	16G\Jk	.
=112	=112	=112	=112	=112	=112	=112	=112	=112
8d\L	.	X 3 9	4A/	.	8.fT/L	.	8.FT\L	cle-
8D\J	.	X X 8	.	.	.	.	.	.
.	.	.	.	.	16e/K	.	16E\Jk	.
4r	.	.	4r	.	8d/	.	8D/	-mens
.	.	.	.	.	8a/J	.	8AA/	.
!LO:PB:g=original	!	!	!	!	!	!	!LO:LB:g=original	!
=113	=113	=113	=113	=113	=113	=113	=113	=113
8r	.	.	4dd\	.	8.dd\L	.	8.D\L	o
8D/L	.	.	.	.	.	.	.	.
.	.	.	.	.	16ee\Jk	.	16E\Jk	.
.	.	.	.	.	8qqff/	.	8qqF/	.
8C#X/	.	X 6 5	8.a/L	.	8.eet\L	.	(8.Et\L	pi-
8AA/J	.	.	.	.	.	.	.	.
.	.	.	16g/Jk	.	(32dd\LL	.	32D\LL	.
.	.	.	.	.	32ee\JJJ)	.	32E\JJJ)	.
!	!	!	!LO:LB:g=original	!	!	!	!	!
=114	=114	=114	=114	=114	=114	=114	=114	=114
.	.	.	.	.	(16qqee/LL	.	.	.
.	.	.	.	.	16qqgg/JJ)	.	8qqE/	.
!LO:TX:t=P:problem:mixed beam	!	!	!	!	!	!	!	!
8D\L	.	X 3 9	8.fT/L	.	4ff\	.	4F\	-a
8DD/J	.	X X 8	.	.	.	.	.	.
.	.	.	16e/K	.	.	.	.	.
4r	.	.	8d/	.	8r	.	4r	.
.	.	.	8a/J	.	8ee\	.	.	.
=115	=115	=115	=115	=115	=115	=115	=115	=115
4d\	.	.	8.dd\L	.	8.ff\L	.	4d\	o
.	.	.	16ee\Jk	.	16gg\Jk	.	.	.
.	.	.	8qqff/	.	8qqaa/	.	.	.
8.A\L	.	X 7 3#	(8.eet\L	.	8.ggT\L	.	8.A\L	.
16G\Jk	.	.	32dd\LL	.	(32ff\LL	.	16G\Jk	.
.	.	.	32ee\JJJ)	.	32gg\JJJ)	.	.	.
=116	=116	=116	=116	=116	=116	=116	=116	=116
8F\L	.	X X 6	(16ff\LL	.	(16aa\LL	.	(8F\L	dul-
.	.	.	16a\	.	16ff\)	.	.	.
8A\|	.	.	16g\	.	(16ee\	.	8A\J)	.
.	.	.	16f\JJ)	.	16dd\JJ)	.	.	.
!	!	!	!	!	!LO:LB:g=original	!	!	!
8F\|	.	.	(16e/LL	.	(16cc#X\LL	.	8F\	-cis
.	.	.	16f/)	.	16dd\)	.	.	.
8D\J|	.	.	(16e/	.	(16cc#\	.	8D\	Vir-
.	.	.	16f/JJ)	.	16dd\JJ)	.	.	.
=117	=117	=117	=117	=117	=117	=117	=117	=117
!LO:TX:t=P:problem:mixed beam	!	!	!	!	!	!	!	!
8GG/L	.	X 6 5	(16dd\LL	.	(16bb-\LL	.	8G\	-go
.	.	.	16b-\)	.	16gg\)	.	.	.
8G\	.	.	(16a\	.	(16ff\	.	8B-\	Ma-
.	.	.	16g\JJ)	.	16ee\JJ)	.	.	.
!	!	!	!	!	!	!	!LO:TX:t=P:problem:mixed beam	!
8A\	.	X 6 4	8f/L	.	8dd\L	.	(8A\L	-ri-
8AA/J	.	X 7 3#	8et/J	.	8cc#Xt\J	.	8AA/J)	.
=118	=118	=118	=118	=118	=118	=118	=118	=118
.	.	.	8qqe/	.	8qqcc/	.	.	.
8D\L	.	.	4f/	.	4dd\	.	4D/	-a.
8d\	.	.	.	.	.	.	.	.
!	!LO:DY:b:t=for&colon;	!	!	!	!	!	!	!
8D\	f	.	16r	.	8r	.	4r	.
!	!	!	!	!LO:DY:b:t=for	!	!	!	!
.	.	.	16aa\LL	f	.	.	.	.
!	!	!	!	!	!	!LO:DY:b:t=for	!	!
8C#X\J	.	X X 6	16a\	.	8ee\	f	.	.
.	.	.	16aa\JJ	.	.	.	.	.
!	!	!	!	!	!	!	!LO:LB:g=original	!
=119	=119	=119	=119	=119	=119	=119	=119	=119
!	!	!	!	!	!	!	!LO:TX:a:t=13.	!
8D\L	.	.	8a/	.	(16ff\LL	.	0r	.
.	.	.	.	.	16aa\)	.	.	.
8E\	.	X X 6/	4aa\	.	(16cc#X\	.	.	.
.	.	.	.	.	16ee\JJ)	.	.	.
8F\	.	X X 6	.	.	(16dd\LL	.	.	.
.	.	.	.	.	16ff\)	.	.	.
8C#X\J	.	X 6 5	[8a/	.	(16ee\	.	.	.
.	.	.	.	.	16gg\JJ)	.	.	.
=120	=120	=120	=120	=120	=120	=120	=120	=120
!	!	!	!	!	!LO:TX:t=P:problem:mixed beam	!	!	!
8D\L	.	.	8a/]	.	(16ff\LL	.	.	.
.	.	.	.	.	16aa\)	.	.	.
8G\	.	X 4 2	4aa\	.	(16c#X/	.	.	.
.	.	.	.	.	16e/JJ)	.	.	.
8F\	.	X X 6	.	.	(16d/LL	.	.	.
.	.	.	.	.	16f/)	.	.	.
8C#X\J	.	X 6 5	[8a/	.	(16e/	.	.	.
.	.	.	.	.	16g/JJ)	.	.	.
!LO:LB:g=original	!	!	!	!	!	!	!	!
=121	=121	=121	=121	=121	=121	=121	=121	=121
!	!	!	!	!	!LO:TUP:b:problem:klamra łukowa	!	!	!
8D\L	.	.	8a/]	.	24f/LL	.	.	.
.	.	.	.	.	24e/	.	.	.
.	.	.	.	.	24d/JJ	.	.	.
8F\	.	X X 6	4dd\	.	16dd\LL|	.	.	.
.	.	.	.	.	16a\JJ|	.	.	.
!	!	!	!	!	!LO:LB:g=original	!	!	!
.	.	.	.	.	(16qqdd/LL	.	.	.
.	.	.	.	.	16qqee/JJ)	.	.	.
8G\	.	X 6 5	.	.	4eet\	.	.	.
*	*	*Xreverse	*	*	*	*	*	*
8A\J	.	X X 3#	8cc#Xt\	.	.	.	.	.
!	!	!	!LO:LB:g=original	!	!	!	!	!
=122	=122	=122	=122	=122	=122	=122	=122	=122
.	.	.	8qqcc/	.	8qqee/	.	.	.
16r	.	X X 6	4dd\	.	4dd\	.	.	.
16B-\LL	.	.	.	.	.	.	.	.
16A\	.	.	.	.	.	.	.	.
16G\JJ	.	.	.	.	.	.	.	.
8F\L	.	X X 6	16r	.	8r	.	.	.
!	!	!	!	!LO:DY:b:t=pia&colon;	!	!	!	!
.	.	.	16aa\LL	p	.	.	.	.
!	!LO:DY:b:t=pia&colon;	!	!	!	!	!LO:DY:b:t=pia&colon;	!	!
8C#X\J	p	X X 6	16a\	.	8ee\	p	.	.
.	.	.	16aa\JJ	.	.	.	.	.
=123	=123	=123	=123	=123	=123	=123	=123	=123
8D\L	.	.	8a/	.	(16ff\LL	.	0r	.
.	.	.	.	.	16aa\)	.	.	.
8E\	.	X X 6/	4A/	.	(16cc#X\	.	.	.
.	.	.	.	.	16ee\JJ)	.	.	.
8F\	.	X X 6	.	.	(16dd\LL	.	.	.
.	.	.	.	.	16ff\)	.	.	.
8C#X\J	.	X 6 5	[8a/	.	(16ee\	.	.	.
.	.	.	.	.	16gg\JJ)	.	.	.
=124	=124	=124	=124	=124	=124	=124	=124	=124
!	!	!	!	!	!LO:TX:t=P:problem:mixed beam	!	!	!
8D\L	.	.	8a/]	.	(16ff\LL	.	.	.
.	.	.	.	.	16aa\)	.	.	.
8G\	.	X 4/ 2	4A/	.	(16c#X/	.	.	.
.	.	.	.	.	16e/JJ)	.	.	.
8F\	.	X X 6	.	.	(16d/LL	.	.	.
.	.	.	.	.	16f/)	.	.	.
8C#X\J	.	X 6 5	[8a/	.	(16e/	.	.	.
.	.	.	.	.	16g/JJ)	.	.	.
=125	=125	=125	=125	=125	=125	=125	=125	=125
!LO:TX:t=P:problem:mixed beam	!	!	!	!	!	!	!	!
!	!LO:DY:b:t=for&colon;	!	!	!LO:DY:b:t=for	!LO:TUP:b:problem:klamra łukowa	!LO:DY:b:t=for&colon;	!	!
8D\L	f	.	8a/]	f	24f/LL	f	.	.
.	.	.	.	.	24e/	.	.	.
.	.	.	.	.	24d/JJ	.	.	.
!	!	!	!	!	!LO:TUP:b:problem:klamra łukowa	!	!	!
8G\	.	.	4d/	.	24b-/LL	.	.	.
.	.	.	.	.	24a/	.	.	.
.	.	.	.	.	24g/JJ	.	.	.
8A\	.	X X 4	.	.	8a/L|	.	.	.
*	*	*reverse	*	*	*	*	*	*
8AA/J	.	X X 3#	8c#Xt/	.	8A/J|	.	.	.
=126	=126	=126	=126	=126	=126	=126	=126	=126
!	!	!	!LO:TX:t=P:problem:mixed beam	!	!	!	!	!
4D/	.	.	8d/L	.	8d/L	.	.	.
.	.	.	8cc#X\|	.	8ccc#X\|	.	.	.
4r	.	.	8dd\|	.	8ddd\|	.	.	.
.	.	.	8g#X\J|	.	8gg#X\J|	.	.	.
!	!	!	!	!	!LO:LB:g=original	!	!	!
=127	=127	=127	=127	=127	=127	=127	=127	=127
4r	.	.	8a/L|	.	8aa\L|	.	0r	.
.	.	.	8e/|	.	8ee\|	.	.	.
8r	.	.	8f/|	.	8ff\|	.	.	.
8c#X\|	.	.	8c#X/J|	.	8cc#X\J|	.	.	.
!LO:LB:g=original	!	!	!	!	!	!	!	!
=128	=128	=128	=128	=128	=128	=128	=128	=128
8d\L|	.	.	8d/L|	.	8dd\L|	.	.	.
8A\|	.	.	8a/|	.	8a\|	.	.	.
8B-\|	.	.	8b-/|	.	8b-\|	.	.	.
8G#X\J|	.	.	8g#X/J|	.	8g#X\J|	.	.	.
=129	=129	=129	=129	=129	=129	=129	=129	=129
8A\L|	.	.	8a/L|	.	8a/L|	.	.	.
8E\|	.	.	8e/|	.	8e/|	.	.	.
8F\|	.	.	8f/|	.	8f/	.	.	.
8C#X\J|	.	.	8c#X/J|	.	8c#X/J|	.	.	.
=130	=130	=130	=130	=130	=130	=130	=130	=130
16D\LL	.	.	16d/LL	.	16d/LL	.	.	.
16B-\	.	.	16b-/	.	16b-/	.	.	.
16A\	.	.	16a/	.	16a/	.	.	.
16G\JJ	.	.	16g/JJ	.	16g/JJ	.	.	.
!LO:TX:t=P:problem:mixed beam	!	!	!	!	!	!	!	!
8A\L	.	X X 3#	8a/L|	.	8a/L|	.	.	.
8AA/J|	.	.	8A/J|	.	8A/J|	.	.	.
=131	=131	=131	=131	=131	=131	=131	=131	=131
4D/	.	.	4d/	.	4d/	.	2r	.
4r	.	.	4r	.	4r	.	.	.
==	==	==	==	==	==	==	==	==
*-	*-	*-	*-	*-	*-	*-	*-	*-
!!!system-decoration: s1[(g1)]s4
!!!RDF**kern: | = vertical stroke
!!!RDF**kern: > = above
!!!RDF**kern: < = below
!!!AIN: 1 bass 1 organ 2 violn
!!!ENC: Anastazja Marusiak
!!!END: 2022-03-30
!!!EED: Antoni Szymański
!!!EST: 2022-04-07
